betas/assets/img/icons/skills/code-tag-svgrepo-com.svg

<svg fill="none" height="800" viewBox="0 0 24 24" width="800" xmlns="http://www.w3.org/2000/svg"><g fill="#000"><path d="m7.90451 6.92144c.5089-.46649.54328-1.2572.07679-1.7661-.46649-.50889-1.2572-.54327-1.7661-.07678zm-6.44257 4.20996.84466.9215zm0 .7372.84466-.9215zm4.75326 6.0528c.5089.4665 1.29961.4322 1.7661-.0767s.43211-1.2997-.07679-1.7661zm0-12.84284-5.597913 5.13144 1.689313 1.8429 5.59791-5.13146zm-5.597913 7.71144 5.597913 5.1314 1.68931-1.8428-5.59791-5.1315zm0-2.58c-.756643.6936-.756643 1.8864 0 2.58l1.689313-1.8429c.32427.2973.32427.8085 0 1.1058z"/><path d="m16.0557 16.0786c-.5089.4664-.5432 1.2572-.0768 1.7661.4665.5089 1.2572.5432 1.7661.0767zm6.4426-4.21-.8446-.9215zm0-.7372-.8446.9215zm-4.7533-6.05284c-.5089-.46649-1.2996-.43211-1.766.07678-.4665.5089-.4322 1.29961.0767 1.7661zm0 12.84284 5.598-5.1314-1.6893-1.8429-5.598 5.1315zm5.598-7.7114-5.598-5.13144-1.6893 1.84288 5.598 5.13146zm0 2.58c.7566-.6936.7566-1.8864 0-2.58l-1.6893 1.8429c-.3243-.2973-.3243-.8085 0-1.1058z"/><path d="m15.2127 3.80317c.1674-.66974-.2398-1.34841-.9095-1.51585-.6698-.16743-1.3484.23977-1.5159.90951zm-6.42538 15.39363c-.16743.6698.23977 1.3484.90951 1.5159.66977.1674 1.34837-.2398 1.51587-.9095zm3.99998-15.99997-3.99998 15.99997 2.42538.6064 4-16.00003z"/></g></svg>

<?xml version="1.0" encoding="utf-8"?><!-- Uploaded to: SVG Repo, www.svgrepo.com, Generator: SVG Repo Mixer Tools -->
<svg width="800px" height="800px" viewBox="0 0 24 24" fill="none" xmlns="http://www.w3.org/2000/svg">
<path d="M7.90451 6.92144C8.41341 6.45495 8.44779 5.66424 7.9813 5.15534C7.51481 4.64645 6.7241 4.61207 6.2152 5.07856L7.90451 6.92144ZM1.46194 11.1314L2.3066 12.0529L2.3066 12.0529L1.46194 11.1314ZM1.46194 11.8686L2.3066 10.9471L2.3066 10.9471L1.46194 11.8686ZM6.2152 17.9214C6.7241 18.3879 7.51481 18.3536 7.9813 17.8447C8.44779 17.3358 8.41341 16.545 7.90451 16.0786L6.2152 17.9214ZM6.2152 5.07856L0.617287 10.21L2.3066 12.0529L7.90451 6.92144L6.2152 5.07856ZM0.617287 12.79L6.2152 17.9214L7.90451 16.0786L2.3066 10.9471L0.617287 12.79ZM0.617287 10.21C-0.139356 10.9036 -0.139356 12.0964 0.617287 12.79L2.3066 10.9471C2.63087 11.2444 2.63087 11.7556 2.3066 12.0529L0.617287 10.21Z" fill="#000000"/>
<path d="M16.0557 16.0786C15.5468 16.545 15.5125 17.3358 15.9789 17.8447C16.4454 18.3536 17.2361 18.3879 17.745 17.9214L16.0557 16.0786ZM22.4983 11.8686L21.6537 10.9471L21.6537 10.9471L22.4983 11.8686ZM22.4983 11.1314L21.6537 12.0529L21.6537 12.0529L22.4983 11.1314ZM17.745 5.07856C17.2361 4.61207 16.4454 4.64645 15.979 5.15534C15.5125 5.66424 15.5468 6.45495 16.0557 6.92144L17.745 5.07856ZM17.745 17.9214L23.343 12.79L21.6537 10.9471L16.0557 16.0786L17.745 17.9214ZM23.343 10.21L17.745 5.07856L16.0557 6.92144L21.6537 12.0529L23.343 10.21ZM23.343 12.79C24.0996 12.0964 24.0996 10.9036 23.343 10.21L21.6537 12.0529C21.3294 11.7556 21.3294 11.2444 21.6537 10.9471L23.343 12.79Z" fill="#000000"/>
<path d="M15.2127 3.80317C15.3801 3.13343 14.9729 2.45476 14.3032 2.28732C13.6334 2.11989 12.9548 2.52709 12.7873 3.19683L15.2127 3.80317ZM8.78732 19.1968C8.61989 19.8666 9.02709 20.5452 9.69683 20.7127C10.3666 20.8801 11.0452 20.4729 11.2127 19.8032L8.78732 19.1968ZM12.7873 3.19683L8.78732 19.1968L11.2127 19.8032L15.2127 3.80317L12.7873 3.19683Z" fill="#000000"/>
</svg>
